!!!SOCIAL_FUNCTION:	bird dance songs
!!!PDT:	1956
!!!OTL: No_141_Screech_Owl_Dance_Song_(a).krn
!!!LANG: Non-Tone
!!!LING_GROUP: Muskogean
!!!REG: Florida
**kern
*staff1
=1-
=
*clefF4
*k[f#c#]
*M2/4
4.A\
8A\
=2||
*M3/4
2A\
(8.G\L
16D\Jk)
=3
4D\
2D\
=4||
*M2/4
4.E\
8E\
=5||
*M3/4
2D\
8.BB/L
16AA/Jk
=6
4AA/
4AA/
8AA/L
8C#/J
=7||
*M2/4
4D\
8AA/L
8C#/J
=8||
*M3/4
4D\
8.D/L
16BB/Jk
4D\
=9||
*M2/4
2D\
==:|!
*-
